X: 72
M: 6/8
L: 1/8
K: D
(d/B/) | A> B A {de}f> e d |
 {de}f> e d | Te> d (d/f/) {e}d2 (d/B/) |
e | f> e f g> f (e/d/) |
g> f (e/d/) | e> d e | d2 e |
f> e f (g>f) (e/d/) | B> A B
d> B A/ A/ | A> B A {de}f e d |

